svg/mono/alipay.svg

<svg xmlns="http://www.w3.org/2000/svg" width="750" height="471" viewBox="0 0 750 471">
  <path fill="#393939" fill-rule="evenodd" d="M0,40.0047706 C0,17.9107459 17.9143492,0 39.9919369,0 L710.008063,0 C732.095,0 750,17.9064659 750,40.0047706 L750,430.995229 C750,453.089254 732.085651,471 710.008063,471 L39.9919369,471 C17.905,471 0,453.093534 0,430.995229 L0,40.0047706 Z M99.460353,243.349396 C94.6592864,243.949379 86.2574197,245.749327 81.456353,249.949206 C67.053153,262.548841 75.4550197,284.7482 104.861553,284.7482 C121.665286,284.7482 138.46902,273.948512 151.671953,257.148997 C132.467686,248.149258 116.86422,241.549448 99.460353,243.349396 L99.460353,243.349396 Z M207.034,258.796653 C234.04,267.796393 240.041333,268.396375 240.041333,268.396375 L240.041333,172.39915 C240.041333,156.199618 226.8384,143 210.034667,143 L84.0066667,143 C67.8030667,143 54,156.199618 54,172.39915 L54,298.395508 C54,314.59504 67.2029333,327.794658 84.0066667,327.794658 L210.034667,327.794658 C226.238267,327.794658 240.041333,314.59504 240.041333,298.395508 L240.041333,297.195543 C240.041333,297.195543 192.030667,277.396115 167.4252,265.396462 C151.2216,285.19589 130.216933,297.795525 108.012,297.795525 C70.8037333,297.795525 58.2009333,265.396462 76.2049333,244.397069 C79.8057333,239.597208 86.4072,235.397329 96.6094667,232.997399 C112.212933,229.397503 137.418533,235.397329 160.823733,243.197104 C165.024667,235.397329 168.625467,226.997572 171.026,217.997832 L98.4098667,217.997832 L98.4098667,210.79804 L135.618133,210.79804 L135.618133,196.398456 L90.008,196.398456 L90.008,189.198665 L135.618133,189.198665 L135.618133,170.599202 C135.618133,170.599202 135.618133,167.599289 138.6188,167.599289 L156.6228,167.599289 L156.6228,189.798647 L201.6328,189.798647 L201.6328,196.398456 L156.6228,196.398456 L156.6228,209.598075 L193.230933,209.598075 C189.630133,223.997659 184.228933,237.197277 177.627467,248.596948 C189.630133,252.796826 199.8324,256.396722 207.034,258.796653 L207.034,258.796653 Z M325.688933,186.612532 L365.297733,272.410052 L344.293067,272.410052 L333.490667,249.610711 L301.083467,249.610711 L290.281067,272.410052 L276.478,272.410052 L316.686933,189.012463 C316.686933,189.012463 317.8872,186.612532 320.287733,186.612532 C322.088133,186.612532 325.688933,186.612532 325.688933,186.612532 L325.688933,186.612532 Z M304.684267,241.810937 L329.889867,241.810937 L317.287067,214.811717 L304.684267,241.810937 L304.684267,241.810937 Z M392.132267,273.092791 L372.928,273.092791 L372.928,191.49515 C372.928,189.095219 374.128267,187.895254 377.128933,187.895254 L392.132267,187.895254 L392.132267,273.092791 L392.132267,273.092791 Z M428.140267,272.534187 L408.936,272.534187 L408.936,210.735973 C408.936,208.336042 410.136267,207.136077 413.136933,207.136077 L428.140267,207.136077 L428.140267,272.534187 L428.140267,272.534187 Z M451.621934,208.418799 L464.224734,208.418799 L464.224734,214.418625 C466.625267,212.618677 469.025801,210.818729 472.026467,210.218747 C475.027134,209.018781 478.027801,208.418799 482.228734,208.418799 C486.429667,208.418799 490.030467,209.018781 493.031134,210.818729 C496.631934,212.618677 499.032467,214.418625 501.433001,217.418539 C503.833534,220.418452 505.633934,223.418365 506.834201,227.018261 C508.034467,230.618157 508.634601,234.218053 508.634601,238.417932 C508.634601,243.817775 508.034467,248.617637 506.234067,252.817515 C504.433667,257.017394 502.633267,261.217272 499.632601,264.217186 C496.631934,267.217099 493.631267,270.217012 489.430334,272.01696 C485.229401,273.816908 481.028467,274.416891 476.227401,274.416891 L469.625934,274.416891 C467.825534,274.416891 466.025134,273.816908 464.224734,273.216926 L464.224734,294.816301 L445.020467,294.816301 L445.020467,216.218573 C444.420334,208.418799 447.421001,208.418799 451.621934,208.418799 L451.621934,208.418799 Z M464.224734,255.217446 C464.224734,257.017394 464.224734,258.217359 464.824867,259.417325 C465.425001,260.61729 466.025134,261.817255 467.225401,263.01722 C468.425667,264.217186 469.625934,264.817168 470.826201,265.417151 C472.026467,266.017134 473.826867,266.017134 475.627267,266.017134 C477.427667,266.017134 478.627934,265.417151 480.428334,264.217186 C481.628601,263.01722 483.429001,261.817255 484.029134,259.417325 C484.629267,257.017394 485.829534,255.217446 486.429667,252.217533 C487.029801,249.217619 487.629934,246.817689 487.629934,243.217793 C487.629934,239.017914 487.629934,235.418018 487.029801,232.418105 C486.429667,229.418192 485.829534,227.018261 484.629267,224.61833 C483.429001,222.818382 482.228734,221.018434 481.028467,219.818469 C479.828201,218.618504 478.027801,218.018521 476.227401,218.018521 C475.027134,218.018521 473.826867,218.018521 472.626601,218.618504 C471.426334,219.218486 470.226067,219.818469 469.625934,220.418452 C468.425667,221.018434 467.825534,222.2184 466.625267,222.818382 C465.425001,224.018348 464.824867,224.61833 464.224734,225.818296 L464.224734,255.217446 L464.224734,255.217446 Z M545.252,208.418799 C550.053067,208.418799 553.653867,209.018781 557.254667,209.618764 C560.255333,210.218747 563.256,211.418712 565.656533,213.21866 C568.057067,215.018608 569.257333,216.818556 570.4576,218.618504 C571.657867,221.018434 572.258,223.418365 572.258,225.818296 L572.258,273.216926 L553.053733,273.216926 L553.053733,268.417064 C551.853467,269.61703 550.6532,270.217012 550.053067,270.816995 C548.8528,271.416978 547.652533,272.01696 546.452267,272.616943 C545.252,273.216926 544.051733,273.816908 542.251333,273.816908 C540.450933,274.416891 538.650533,274.416891 536.850133,274.416891 C533.849467,274.416891 531.448933,273.816908 529.0484,273.216926 C526.647867,272.616943 524.847467,271.416978 523.047067,269.61703 C521.246667,268.417064 520.0464,266.617116 519.446267,264.217186 C518.846133,262.417238 518.246,260.017307 518.246,257.617377 C518.246,255.217446 518.846133,252.817515 519.446267,251.017567 C520.0464,249.217619 521.8468,247.417671 523.047067,245.617723 C524.247333,243.817775 526.647867,242.61781 528.448267,241.417845 C530.8488,240.217879 532.6492,239.017914 535.649867,237.817949 C538.0504,236.617984 540.450933,236.018001 543.4516,234.818036 C545.852133,234.218053 548.8528,233.018088 551.253333,232.418105 L553.653867,231.818122 L553.653867,225.218313 C553.653867,223.418365 553.653867,221.618417 553.053733,219.818469 C552.4536,218.618504 551.853467,217.418539 551.253333,216.218573 C550.6532,215.618591 549.452933,214.418625 548.8528,214.418625 C547.652533,213.818643 546.452267,213.818643 545.252,213.818643 C545.252,213.818643 535.049733,213.818643 526.047733,221.618417 L521.8468,215.018608 C520.0464,216.218573 530.8488,208.418799 545.252,208.418799 L545.252,208.418799 Z M551.853467,240.217879 C550.053067,240.817862 548.252667,242.017827 546.452267,243.217793 C544.651867,244.417758 542.851467,245.617723 541.051067,246.817689 C539.250667,248.017654 538.0504,249.217619 537.450267,251.017567 C536.25,252.217533 536.25,254.017481 536.25,255.217446 C536.25,256.417411 536.25,257.617377 536.850133,258.817342 C537.450267,260.017307 537.450267,260.61729 538.0504,261.817255 C538.650533,263.01722 539.250667,263.01722 539.8508,263.617203 C540.450933,264.217186 541.051067,264.217186 542.251333,264.217186 C544.051733,264.217186 545.252,263.617203 547.0524,263.01722 C548.8528,261.817255 550.6532,260.61729 552.4536,259.417325 L552.4536,240.217879 L551.853467,240.217879 Z M598.406667,294.216319 L585.803867,294.216319 L585.203733,282.816648 C585.203733,282.816648 600.8072,283.416631 605.608267,277.416804 C607.408667,275.016874 608.608933,268.417064 608.608933,268.417064 L577.402,208.418799 L598.406667,208.418799 L618.211067,247.417671 L635.614933,208.418799 L649.418,208.418799 L617.610933,279.216752 C616.410667,281.616683 611.6096,294.216319 598.406667,294.216319 L598.406667,294.216319 Z M418.602133,198 C423.905245,198 428.204267,194.19442 428.204267,189.5 C428.204267,184.80558 423.905245,181 418.602133,181 C413.299022,181 409,184.80558 409,189.5 C409,194.19442 413.299022,198 418.602133,198 Z M668.879467,158.309902 L662.278,158.309902 L662.278,157.109937 L676.6812,157.109937 L676.6812,158.309902 L670.079733,158.309902 L670.079733,176.909365 L668.279333,176.909365 L668.279333,158.309902 L668.879467,158.309902 Z M679.596133,157.109937 L681.996667,157.109937 L686.1976,168.509607 L687.998,172.709486 L687.998,172.709486 C688.598133,171.509521 689.198267,169.709573 689.7984,168.509607 L693.999333,157.109937 L696.399867,157.109937 L696.399867,177.509347 L693.999333,177.509347 L693.999333,164.909712 L693.999333,159.509868 L693.999333,159.509868 L692.198933,164.309729 L687.998,176.309382 L686.797733,176.309382 L682.5968,164.309729 L680.7964,159.509868 L680.7964,159.509868 L680.7964,164.909712 L680.7964,177.509347 L678.996,177.509347 L678.996,157.109937 L679.596133,157.109937 Z"/>
</svg>

<svg xmlns="http://www.w3.org/2000/svg" width="750" height="471" viewBox="0 0 750 471"><path fill="#393939" fill-rule="evenodd" d="M0 40.005C0 17.91 17.914 0 39.992 0h670.016C732.095 0 750 17.906 750 40.005v390.99C750 453.09 732.086 471 710.008 471H39.992C17.905 471 0 453.094 0 430.995V40.005zm99.46 203.344c-4.8.6-13.203 2.4-18.004 6.6-14.403 12.6-6.001 34.8 23.406 34.8 16.803 0 33.607-10.8 46.81-27.6-19.204-9-34.808-15.6-52.212-13.8zm107.574 15.448c27.006 9 33.007 9.6 33.007 9.6v-95.998c0-16.2-13.203-29.399-30.006-29.399H84.007C67.803 143 54 156.2 54 172.4v125.996c0 16.199 13.203 29.399 30.007 29.399h126.028c16.203 0 30.006-13.2 30.006-29.4v-1.2s-48.01-19.799-72.616-31.799c-16.203 19.8-37.208 32.4-59.413 32.4-37.208 0-49.811-32.4-31.807-53.399 3.6-4.8 10.202-9 20.404-11.4 15.604-3.6 40.81 2.4 64.215 10.2 4.2-7.8 7.801-16.2 10.202-25.2H98.41v-7.199h37.208v-14.4h-45.61v-7.2h45.61V170.6s0-3 3-3h18.005v22.2h45.01v6.6h-45.01v13.2h36.608c-3.6 14.399-9.002 27.598-15.604 38.998 12.003 4.2 22.205 7.8 29.407 10.2zm118.655-72.184l39.609 85.797h-21.005l-10.802-22.8h-32.408l-10.802 22.8h-13.803l40.209-83.398s1.2-2.4 3.6-2.4h5.402zm-21.005 55.198h25.206l-12.603-27-12.603 27zm87.448 31.282h-19.204v-81.598c0-2.4 1.2-3.6 4.2-3.6h15.004v85.198zm36.008-.559h-19.204v-61.798c0-2.4 1.2-3.6 4.2-3.6h15.004v65.398zm23.482-64.115h12.603v6c2.4-1.8 4.8-3.6 7.801-4.2 3.001-1.2 6.002-1.8 10.203-1.8 4.2 0 7.801.6 10.802 2.4 3.6 1.8 6.001 3.6 8.402 6.6 2.4 3 4.2 6 5.401 9.6 1.2 3.6 1.8 7.2 1.8 11.399 0 5.4-.6 10.2-2.4 14.4-1.8 4.2-3.6 8.4-6.601 11.4s-6.002 5.999-10.203 7.799c-4.2 1.8-8.402 2.4-13.203 2.4h-6.601c-1.8 0-3.6-.6-5.401-1.2v21.6H445.02v-78.598c-.6-7.8 2.401-7.8 6.602-7.8zm12.603 46.798c0 1.8 0 3 .6 4.2.6 1.2 1.2 2.4 2.4 3.6 1.2 1.2 2.4 1.8 3.601 2.4 1.2.6 3 .6 4.801.6 1.8 0 3-.6 4.801-1.8 1.2-1.2 3.001-2.4 3.601-4.8.6-2.4 1.8-4.2 2.4-7.2.6-3 1.2-5.4 1.2-9 0-4.2 0-7.799-.6-10.799-.6-3-1.2-5.4-2.4-7.8-1.2-1.8-2.4-3.6-3.6-4.8-1.2-1.2-3.001-1.8-4.802-1.8-1.2 0-2.4 0-3.6.6-1.2.6-2.4 1.2-3.001 1.8-1.2.6-1.8 1.8-3 2.4-1.201 1.2-1.801 1.8-2.401 3v29.4zm81.027-46.798c4.801 0 8.402.6 12.003 1.2 3 .6 6.001 1.8 8.402 3.6 2.4 1.8 3.6 3.6 4.8 5.4 1.2 2.4 1.801 4.8 1.801 7.2v47.398h-19.204v-4.8c-1.2 1.2-2.4 1.8-3 2.4l-3.602 1.8c-1.2.6-2.4 1.2-4.2 1.2-1.801.6-3.601.6-5.402.6-3 0-5.401-.6-7.802-1.2-2.4-.6-4.2-1.8-6-3.6-1.801-1.2-3.002-3-3.602-5.4-.6-1.8-1.2-4.2-1.2-6.6 0-2.4.6-4.8 1.2-6.6.6-1.8 2.4-3.6 3.601-5.4 1.2-1.8 3.6-3 5.401-4.2 2.4-1.2 4.201-2.4 7.202-3.6 2.4-1.199 4.8-1.799 7.802-2.999 2.4-.6 5.4-1.8 7.801-2.4l2.4-.6v-6.6c0-1.8 0-3.6-.6-5.4l-1.8-3.6c-.6-.6-1.8-1.8-2.4-1.8-1.2-.6-2.4-.6-3.601-.6 0 0-10.202 0-19.204 7.8l-4.201-6.6c-1.8 1.2 9.002-6.6 23.405-6.6zm6.601 31.799c-1.8.6-3.6 1.8-5.4 3l-5.402 3.6c-1.8 1.2-3 2.4-3.6 4.2-1.201 1.2-1.201 3-1.201 4.2 0 1.2 0 2.4.6 3.6.6 1.2.6 1.8 1.2 3s1.2 1.2 1.8 1.8c.6.6 1.201.6 2.401.6 1.8 0 3.001-.6 4.801-1.2l5.402-3.6v-19.2h-.6zm46.554 53.998h-12.603l-.6-11.4s15.603.6 20.404-5.4c1.8-2.4 3-8.999 3-8.999l-31.206-59.998h21.005l19.804 38.999 17.404-39h13.803l-31.807 70.799c-1.2 2.4-6.001 15-19.204 15zM418.602 198c5.303 0 9.602-3.806 9.602-8.5s-4.299-8.5-9.602-8.5-9.602 3.806-9.602 8.5 4.299 8.5 9.602 8.5zm250.277-39.69h-6.601v-1.2h14.403v1.2h-6.601v18.6h-1.8v-18.6h.6zm10.717-1.2h2.4l4.202 11.4 1.8 4.2c.6-1.2 1.2-3 1.8-4.2l4.201-11.4h2.4v20.4H694v-18l-1.8 4.8-4.201 12h-1.2l-4.201-12-1.8-4.8v18h-1.801v-20.4h.6z"/></svg>
